Adwaita++/actions/16/document-print.svg

<svg xmlns="http://www.w3.org/2000/svg" width="16" height="16">
    <g fill="#474747">
        <path d="M2 4c-.5 0-1 .5-1 1v4c0 .5.5 1 1 1h1V8h10v2h1c.5 0 1-.5 1-1V5c0-.5-.5-1-1-1zM4 1v2h8V1z"/>
        <path d="M4 9v5h8V9z"/>
    </g>
</svg>

<svg xmlns="http://www.w3.org/2000/svg" width="16" height="16" version="1.1">
 <path style="fill:#444444" d="M 2,4 C 1.5,4 1,4.5 1,5 V 9 C 1,9.5 1.5,10 2,10 H 3 V 8 H 13 V 10 H 14 C 14.5,10 15,9.5 15,9 V 5 C 15,4.5 14.5,4 14,4 Z"/>
 <path style="fill:#444444" d="M 4,1 V 3 H 12 V 1 Z"/>
 <path style="fill:#444444" d="M 4,9 V 14 H 12 V 9 Z"/>
</svg>
